X:1
T:Song For Ireland
M:4/4
L:1/4
K:C
 E/2 E3/2 E3/2 C/2| D3 E| F2 E/2D/2 C| A,3/2 G,/2 A, B,| C4| E/2 E3/2 E3/2 C/2|\
 D3 E| F3/2 F/2 E C| A,3/2 G,/2 A, B,| C3 z| F3/2 F/2 F G| A3/2 G/2 G3/2 F/2|\
 E/2 C3/2 C3/2 C/2| C3 D/2E/2| D4| F/2 G3/2 A3/2 G/2| G E C3/2 E/2|\
 E3/2 F/2G/2 C3/2| B,3/2 C/2 D3/2 F/2| F3/2 G/2 A3/2 A/2| G C D3/2 E/2|\
 F3/2 F/2 E C| A,- B, C2-| C2 z2|
